icons/lines/printer.svg

<svg xmlns="http://www.w3.org/2000/svg" width="24" height="24" viewBox="0 0 24 24" fill="none" stroke="currentColor" stroke-width="2" stroke-linecap="round" stroke-linejoin="round">
  <path d="M16.75 7V5c0-2-.75-3-3-3h-3.5c-2.25 0-3 1-3 3v2" />
  <path d="M17 15H7" />
  <path d="M7 11h3" />
  <path d="M8 15v4q0 3 3 3h2q3 0 3-3v-4" />
  <path d="M8 18H6q-3 0-3-3v-5q0-3 3-3h12q3 0 3 3v5q0 3-3 3h-2" />
</svg>

<svg xmlns="http://www.w3.org/2000/svg" width="24" height="24" viewBox="0 0 24 24" fill="none" stroke="currentColor" stroke-width="2" stroke-linecap="round" stroke-linejoin="round" >
  <path d="M7.25 7H16.75V5C16.75 3 16 2 13.75 2H10.25C8 2 7.25 3 7.25 5V7Z" stroke-miterlimit="10"/>
  <path d="M16 15V19C16 21 15 22 13 22H11C9 22 8 21 8 19V15H16Z" stroke-miterlimit="10"/>
  <path d="M21 10V15C21 17 20 18 18 18H16V15H8V18H6C4 18 3 17 3 15V10C3 8 4 7 6 7H18C20 7 21 8 21 10Z" stroke-miterlimit="10"/>
  <path d="M17 15H15.79H7" stroke-miterlimit="10"/>
  <path d="M7 11H10" stroke-miterlimit="10"/>
  </svg>
